cloudphone-mobile/gear/svg/cloud-mission.svg

<svg xmlns="http://www.w3.org/2000/svg" preserveAspectRatio="xMidYMid" width="612.469" height="131" viewBox="0 0 612.469 131"><defs><style>.cls-1{fill:#f7f8fa}.cls-1,.cls-2,.cls-3{fill-rule:evenodd}.cls-2{fill:#eceff2}.cls-3{fill:#cae0f6}.cls-filter{filter:url(#AI_blur)}</style><filter id="AI_blur"><feGaussianBlur stdDeviation="4"/></filter></defs><path d="M78.469 0h455.539l78.461 131H.008L78.469 0z" class="cls-1"/><path d="M504.307 51.645h-33.955c-1.339 0-2.601-.468-2.816-1.045l-5.284-14.116c-.202-.538.681-.973 1.97-.973h32.686c1.29 0 2.537.435 2.787.973l6.552 14.116c.268.577-.601 1.045-1.94 1.045zm-12.595-27.464h-31.795c-1.254 0-2.425-.411-2.614-.917l-4.645-12.407c-.177-.474.661-.857 1.871-.857h30.681c1.21 0 2.369.383 2.589.857l5.759 12.407c.235.506-.591.917-1.846.917zm-7.417 98.872h-39.569c-1.56 0-2.997-.636-3.208-1.418l-5.135-19.051c-.194-.722.859-1.306 2.352-1.306h37.857c1.493 0 2.914.584 3.173 1.306l6.846 19.051c.281.782-.756 1.418-2.316 1.418zm-70.534-71.408h-33.954c-1.34 0-2.503-.468-2.598-1.045l-2.325-14.116c-.088-.538.885-.973 2.175-.973h32.686c1.289 0 2.445.435 2.582.973L415.92 50.6c.147.577-.819 1.045-2.159 1.045zm-6.837-27.464h-31.795c-1.255 0-2.339-.411-2.422-.917l-2.044-12.407c-.078-.474.84-.857 2.05-.857h30.681c1.211 0 2.289.383 2.41.857l3.158 12.407c.129.506-.783.917-2.038.917zm-28.144 98.872h-39.568c-1.561 0-2.865-.636-2.912-1.418l-1.141-19.051c-.043-.722 1.133-1.306 2.626-1.306h37.857c1.493 0 2.791.584 2.899 1.306l2.853 19.051c.117.782-1.053 1.418-2.614 1.418zm-54.391-41.544h-36.302c-1.432 0-2.569-.535-2.539-1.194l.723-16.094c.027-.611 1.164-1.106 2.539-1.106h34.856c1.375 0 2.512.495 2.54 1.106l.723 16.094c.029.659-1.108 1.194-2.54 1.194zm-1.173-29.864h-33.955c-1.34 0-2.404-.468-2.378-1.045l.634-14.116c.024-.538 1.089-.973 2.378-.973h32.686c1.29 0 2.355.435 2.379.973l.634 14.116c.026.577-1.039 1.045-2.378 1.045zm-1.08-27.464H290.34c-1.254 0-2.252-.411-2.229-.917l.557-12.407c.021-.474 1.02-.857 2.23-.857h30.681c1.21 0 2.208.383 2.23.857l.557 12.407c.023.506-.976.917-2.23.917zm-48.871 98.872h-39.568c-1.561 0-2.731-.636-2.614-1.418l2.852-19.051c.109-.722 1.407-1.306 2.9-1.306h37.856c1.494 0 2.669.584 2.626 1.306l-1.141 19.051c-.047.782-1.35 1.418-2.911 1.418zm-45.682-41.544h-36.302c-1.432 0-2.457-.535-2.289-1.194l4.097-16.094c.155-.611 1.396-1.106 2.771-1.106h34.856c1.375 0 2.409.495 2.308 1.106l-2.651 16.094c-.108.659-1.358 1.194-2.79 1.194zm5.087-29.864h-33.955c-1.339 0-2.306-.468-2.159-1.045l3.593-14.116c.137-.538 1.293-.973 2.583-.973h32.686c1.289 0 2.263.435 2.174.973L235.267 50.6c-.095.577-1.258 1.045-2.597 1.045zm4.678-27.464h-31.796c-1.254 0-2.166-.411-2.038-.917l3.159-12.407c.12-.474 1.199-.857 2.409-.857h30.681c1.21 0 2.129.383 2.05.857l-2.043 12.407c-.083.506-1.168.917-2.422.917zm-69.598 98.872h-39.568c-1.561 0-2.598-.636-2.317-1.418l6.847-19.051c.259-.722 1.679-1.306 3.173-1.306h37.856c1.494 0 2.547.584 2.352 1.306l-5.134 19.051c-.211.782-1.648 1.418-3.209 1.418zm-36.973-41.544H94.475c-1.432 0-2.344-.535-2.038-1.194l7.47-16.094c.284-.611 1.628-1.106 3.003-1.106h34.856c1.375 0 2.305.495 2.076 1.106l-6.024 16.094c-.247.659-1.608 1.194-3.041 1.194zm11.347-29.864H108.17c-1.34 0-2.208-.468-1.94-1.045l6.552-14.116c.249-.538 1.497-.973 2.786-.973h32.686c1.29 0 2.172.435 1.971.973L144.941 50.6c-.216.577-1.477 1.045-2.817 1.045zm10.436-27.464h-31.796c-1.254 0-2.08-.411-1.846-.917l5.76-12.407c.219-.474 1.379-.857 2.589-.857h30.681c1.21 0 2.048.383 1.87.857l-4.644 12.407c-.189.506-1.36.917-2.614.917z" class="cls-2 cls-filter"/><path d="M588.188 90.46h-112.78l-23.155-64.434h97.343l38.592 64.434zM62.881 26.026h97.343L137.069 90.46H24.289l38.592-64.434zm365.036 0l19.296 64.434H165.264l19.296-64.434h243.357z" class="cls-2"/><path d="M600.097 110.343h-13.775l-.257-.45h13.762l.27.45zm-587.448-.45h13.304l-.258.45H12.38l.269-.45zm274.687-9.265c-1.492 0-2.675-.58-2.643-1.295l.783-17.424c.03-.662 1.213-1.197 2.642-1.197h36.24c1.43 0 2.613.535 2.642 1.197l.783 17.424c.032.715-1.151 1.295-2.642 1.295h-37.805zm61.604 9.715h-85.862l.039-.45H348.9l.04.45z" class="cls-3"/><path d="M75.845 4.38L78.469 0h455.539l2.623 4.38H75.845zm413.587-2.339h-5.725l.127.274h5.729l-.131-.274zm11.449 0h-5.725l.136.274h5.729l-.14-.274zm8.587 0h-5.724l.141.274h5.729l-.146-.274zm22.899 0h-20.036l.147.274h20.051l-.162-.274z" class="cls-2"/></svg>

<svg xmlns="http://www.w3.org/2000/svg" xmlns:xlink="http://www.w3.org/1999/xlink" preserveAspectRatio="xMidYMid" width="612.469" height="131" viewBox="0 0 612.469 131">
    <defs>
        <style>
        .cls-1 {
            fill: #f7f8fa;
        }
        
        .cls-1,
        .cls-2,
        .cls-3 {
            fill-rule: evenodd;
        }
        
        .cls-2 {
            fill: #eceff2;
        }
        
        .cls-3 {
            fill: #cae0f6;
        }
        
        .cls-filter {
            filter: url(#AI_blur);
        }
        </style>
        <filter id="AI_blur">
            <feGaussianBlur stdDeviation="4"></feGaussianBlur>
        </filter>
    </defs>
    <g>
        <path d="M78.469,0.000 L534.008,0.000 L612.469,131.000 L0.008,131.000 L78.469,0.000 Z" class="cls-1" />
        <path d="M504.307,51.645 L470.352,51.645 C469.013,51.645 467.751,51.177 467.536,50.600 L462.252,36.484 C462.050,35.946 462.933,35.511 464.222,35.511 L496.908,35.511 C498.198,35.511 499.445,35.946 499.695,36.484 L506.247,50.600 C506.515,51.177 505.646,51.645 504.307,51.645 ZM491.712,24.181 L459.917,24.181 C458.663,24.181 457.492,23.770 457.303,23.264 L452.658,10.857 C452.481,10.383 453.319,10.000 454.529,10.000 L485.210,10.000 C486.420,10.000 487.579,10.383 487.799,10.857 L493.558,23.264 C493.793,23.770 492.967,24.181 491.712,24.181 ZM484.295,123.053 L444.726,123.053 C443.166,123.053 441.729,122.417 441.518,121.635 L436.383,102.584 C436.189,101.862 437.242,101.278 438.735,101.278 L476.592,101.278 C478.085,101.278 479.506,101.862 479.765,102.584 L486.611,121.635 C486.892,122.417 485.855,123.053 484.295,123.053 ZM413.761,51.645 L379.807,51.645 C378.467,51.645 377.304,51.177 377.209,50.600 L374.884,36.484 C374.796,35.946 375.769,35.511 377.059,35.511 L409.745,35.511 C411.034,35.511 412.190,35.946 412.327,36.484 L415.920,50.600 C416.067,51.177 415.101,51.645 413.761,51.645 ZM406.924,24.181 L375.129,24.181 C373.874,24.181 372.790,23.770 372.707,23.264 L370.663,10.857 C370.585,10.383 371.503,10.000 372.713,10.000 L403.394,10.000 C404.605,10.000 405.683,10.383 405.804,10.857 L408.962,23.264 C409.091,23.770 408.179,24.181 406.924,24.181 ZM378.780,123.053 L339.212,123.053 C337.651,123.053 336.347,122.417 336.300,121.635 L335.159,102.584 C335.116,101.862 336.292,101.278 337.785,101.278 L375.642,101.278 C377.135,101.278 378.433,101.862 378.541,102.584 L381.394,121.635 C381.511,122.417 380.341,123.053 378.780,123.053 ZM324.389,81.509 L288.087,81.509 C286.655,81.509 285.518,80.974 285.548,80.315 L286.271,64.221 C286.298,63.610 287.435,63.115 288.810,63.115 L323.666,63.115 C325.041,63.115 326.178,63.610 326.206,64.221 L326.929,80.315 C326.958,80.974 325.821,81.509 324.389,81.509 ZM323.216,51.645 L289.261,51.645 C287.921,51.645 286.857,51.177 286.883,50.600 L287.517,36.484 C287.541,35.946 288.606,35.511 289.895,35.511 L322.581,35.511 C323.871,35.511 324.936,35.946 324.960,36.484 L325.594,50.600 C325.620,51.177 324.555,51.645 323.216,51.645 ZM322.136,24.181 L290.340,24.181 C289.086,24.181 288.088,23.770 288.111,23.264 L288.668,10.857 C288.689,10.383 289.688,10.000 290.898,10.000 L321.579,10.000 C322.789,10.000 323.787,10.383 323.809,10.857 L324.366,23.264 C324.389,23.770 323.390,24.181 322.136,24.181 ZM273.265,123.053 L233.697,123.053 C232.136,123.053 230.966,122.417 231.083,121.635 L233.935,102.584 C234.044,101.862 235.342,101.278 236.835,101.278 L274.691,101.278 C276.185,101.278 277.360,101.862 277.317,102.584 L276.176,121.635 C276.129,122.417 274.826,123.053 273.265,123.053 ZM227.583,81.509 L191.281,81.509 C189.849,81.509 188.824,80.974 188.992,80.315 L193.089,64.221 C193.244,63.610 194.485,63.115 195.860,63.115 L230.716,63.115 C232.091,63.115 233.125,63.610 233.024,64.221 L230.373,80.315 C230.265,80.974 229.015,81.509 227.583,81.509 ZM232.670,51.645 L198.715,51.645 C197.376,51.645 196.409,51.177 196.556,50.600 L200.149,36.484 C200.286,35.946 201.442,35.511 202.732,35.511 L235.418,35.511 C236.707,35.511 237.681,35.946 237.592,36.484 L235.267,50.600 C235.172,51.177 234.009,51.645 232.670,51.645 ZM237.348,24.181 L205.552,24.181 C204.298,24.181 203.386,23.770 203.514,23.264 L206.673,10.857 C206.793,10.383 207.872,10.000 209.082,10.000 L239.763,10.000 C240.973,10.000 241.892,10.383 241.813,10.857 L239.770,23.264 C239.687,23.770 238.602,24.181 237.348,24.181 ZM167.750,123.053 L128.182,123.053 C126.621,123.053 125.584,122.417 125.865,121.635 L132.712,102.584 C132.971,101.862 134.391,101.278 135.885,101.278 L173.741,101.278 C175.235,101.278 176.288,101.862 176.093,102.584 L170.959,121.635 C170.748,122.417 169.311,123.053 167.750,123.053 ZM130.777,81.509 L94.475,81.509 C93.043,81.509 92.131,80.974 92.437,80.315 L99.907,64.221 C100.191,63.610 101.535,63.115 102.910,63.115 L137.766,63.115 C139.141,63.115 140.071,63.610 139.842,64.221 L133.818,80.315 C133.571,80.974 132.210,81.509 130.777,81.509 ZM142.124,51.645 L108.170,51.645 C106.830,51.645 105.962,51.177 106.230,50.600 L112.782,36.484 C113.031,35.946 114.279,35.511 115.568,35.511 L148.254,35.511 C149.544,35.511 150.426,35.946 150.225,36.484 L144.941,50.600 C144.725,51.177 143.464,51.645 142.124,51.645 ZM152.560,24.181 L120.764,24.181 C119.510,24.181 118.684,23.770 118.918,23.264 L124.678,10.857 C124.897,10.383 126.057,10.000 127.267,10.000 L157.948,10.000 C159.158,10.000 159.996,10.383 159.818,10.857 L155.174,23.264 C154.985,23.770 153.814,24.181 152.560,24.181 Z" class="cls-2 cls-filter" />
        
        <path d="M588.188,90.460 L475.408,90.460 L452.253,26.026 L549.596,26.026 L588.188,90.460 ZM62.881,26.026 L160.224,26.026 L137.069,90.460 L24.289,90.460 L62.881,26.026 ZM427.917,26.026 L447.213,90.460 L165.264,90.460 L184.560,26.026 L427.917,26.026 Z" class="cls-2" />
        <path d="M600.097,110.343 L586.322,110.343 L586.065,109.893 L599.827,109.893 L600.097,110.343 ZM12.649,109.893 L25.953,109.893 L25.695,110.343 L12.380,110.343 L12.649,109.893 ZM287.336,100.628 C285.844,100.628 284.661,100.048 284.693,99.333 L285.476,81.909 C285.506,81.247 286.689,80.712 288.118,80.712 L324.358,80.712 C325.788,80.712 326.971,81.247 327.000,81.909 L327.783,99.333 C327.815,100.048 326.632,100.628 325.141,100.628 L287.336,100.628 ZM348.940,110.343 L263.078,110.343 L263.117,109.893 L348.900,109.893 L348.940,110.343 Z" class="cls-3" />
        <path d="M75.845,4.380 L78.469,0.000 L534.008,0.000 L536.631,4.380 L75.845,4.380 ZM489.432,2.041 L483.707,2.041 L483.834,2.315 L489.563,2.315 L489.432,2.041 ZM500.881,2.041 L495.156,2.041 L495.292,2.315 L501.021,2.315 L500.881,2.041 ZM509.468,2.041 L503.744,2.041 L503.885,2.315 L509.614,2.315 L509.468,2.041 ZM532.367,2.041 L512.331,2.041 L512.478,2.315 L532.529,2.315 L532.367,2.041 Z" class="cls-2" />
    </g>
</svg>
